src/components/Icon/svg-icon/twitter/retweet.svg

<svg xmlns="http://www.w3.org/2000/svg" xmlns:xlink="http://www.w3.org/1999/xlink" width="24" height="24" viewBox="0 0 24 24">
  <defs>
    <path id="retweet-a" d="M15.9417912,6 C17.3225708,6 18.4456591,7.17339458 18.4456591,8.6170833 L18.4456591,8.6170833 L18.4456591,16.2139387 L20.1450022,14.4384772 C20.3408071,14.2349616 20.6573414,14.2349616 20.8531463,14.4384772 C21.0489512,14.6430527 21.0489512,14.9748255 20.8531463,15.1783411 L20.8531463,15.1783411 L18.2985518,17.8473633 C18.2052147,17.9459412 18.0773835,18 17.9444797,18 C17.8115758,18 17.6847592,17.9459412 17.5904076,17.8473633 L17.5904076,17.8473633 L15.0368276,15.1783411 C14.8410226,14.9748255 14.8410226,14.6430527 15.0368276,14.4384772 C15.2326325,14.2349616 15.5491668,14.2349616 15.7449717,14.4384772 L15.7449717,14.4384772 L17.4443148,16.2139387 L17.4443148,8.6170833 C17.4443148,7.75108206 16.7696502,7.04619733 15.9417912,7.04619733 L15.9417912,7.04619733 L11.5011794,7.04619733 C11.2242118,7.04619733 11,6.81300238 11,6.52362865 C11,6.2353149 11.2242118,6 11.5011794,6 L11.5011794,6 Z M5.7011742,6.15421985 C5.89695925,5.94859338 6.21346149,5.94859338 6.40924653,6.15421985 L6.40924653,6.15421985 L8.96358195,8.82206421 C9.159367,9.02663075 9.159367,9.35838891 8.96358195,9.56189551 C8.86518222,9.66470874 8.737364,9.71558539 8.60954579,9.71558539 C8.48071314,9.71558539 8.35289493,9.66470874 8.25449519,9.56189551 L8.25449519,9.56189551 L6.55633892,7.78757232 L6.55633892,15.3851521 C6.55633892,16.2500552 7.22992062,16.9538489 8.05871015,16.9538489 L8.05871015,16.9538489 L12.4988714,16.9538489 C12.7747965,16.9538489 13,17.1891534 13,17.4774544 C13,17.7668154 12.7747965,18 12.4988714,18 L12.4988714,18 L8.05871015,18 C6.67807055,18 5.55408181,16.8266572 5.55408181,15.3851521 L5.55408181,15.3851521 L5.55408181,7.78757232 L3.85491111,9.56189551 C3.65912607,9.76752197 3.34262382,9.76752197 3.14683878,9.56189551 C2.95105374,9.35838891 2.95105374,9.02663075 3.14683878,8.82206421 L3.14683878,8.82206421 Z"/>
  </defs>
  <use fill="#677078" xlink:href="#retweet-a"/>
</svg>

<svg xmlns="http://www.w3.org/2000/svg" xmlns:xlink="http://www.w3.org/1999/xlink" width="24" height="24"><defs><path id="a" d="M15.942 6c1.38 0 2.504 1.173 2.504 2.617v7.597l1.699-1.776a.487.487 0 01.708 0 .54.54 0 010 .74l-2.554 2.67a.487.487 0 01-.709 0l-2.553-2.67a.54.54 0 010-.74.487.487 0 01.708 0l1.7 1.776V8.617c0-.866-.675-1.57-1.503-1.57h-4.44A.512.512 0 0111 6.523c0-.289.224-.524.501-.524zm-10.24.154a.483.483 0 01.707 0l2.555 2.668a.54.54 0 010 .74.488.488 0 01-.71 0L6.556 7.788v7.597c0 .865.674 1.569 1.503 1.569h4.44c.276 0 .501.235.501.523 0 .29-.225.523-.501.523h-4.44c-1.38 0-2.505-1.173-2.505-2.615V7.788l-1.7 1.774a.483.483 0 01-.707 0 .54.54 0 010-.74z"/></defs><use fill="#677078" xlink:href="#a"/></svg>
